packages/katcn/src/icons/svg/downloads.svg

<svg width="24" height="25" viewBox="0 0 24 25" fill="none" xmlns="http://www.w3.org/2000/svg">
<path fill-rule="evenodd" clip-rule="evenodd" d="M2 6.85219C2 4.89332 3.51277 3.28809 5.48619 3.28809H8.96685C10.0949 3.28809 11.1746 3.68204 11.9849 4.62917L13.1489 5.74962H18.5138C20.4872 5.74962 22 7.35486 22 9.31373V17.724C22 19.6829 20.4872 21.2881 18.5138 21.2881H5.48619C3.51277 21.2881 2 19.6829 2 17.724V6.85219ZM5.48619 5.28809C4.67507 5.28809 4 5.93926 4 6.85219V17.724C4 18.6369 4.67507 19.2881 5.48619 19.2881H18.5138C19.3249 19.2881 20 18.6369 20 17.724V9.31373C20 8.4008 19.3249 7.74962 18.5138 7.74962H12.7459C12.4872 7.74962 12.2387 7.64943 12.0524 7.47008L10.5606 6.03418C10.534 6.00851 10.5087 5.98137 10.4851 5.9529C10.1061 5.49695 9.61099 5.28809 8.96685 5.28809H5.48619Z" fill="black"/>
<path fill-rule="evenodd" clip-rule="evenodd" d="M12 9.78809C12.5523 9.78809 13 10.2358 13 10.7881V15.7881C13 16.1725 12.7797 16.5229 12.4332 16.6894C12.0867 16.8559 11.6755 16.8091 11.3753 16.569L8.87531 14.569C8.44405 14.2239 8.37413 13.5947 8.71914 13.1634C9.06415 12.7321 9.69344 12.6622 10.1247 13.0072L11 13.7075V10.7881C11 10.2358 11.4477 9.78809 12 9.78809Z" fill="black"/>
<path fill-rule="evenodd" clip-rule="evenodd" d="M15.2809 13.1634C15.6259 13.5946 15.556 14.2239 15.1247 14.5689L12.6247 16.5689C12.1934 16.9139 11.5641 16.844 11.2191 16.4128C10.8741 15.9815 10.944 15.3522 11.3753 15.0072L13.8753 13.0072C14.3066 12.6622 14.9359 12.7321 15.2809 13.1634Z" fill="black"/>
</svg>

<svg xmlns="http://www.w3.org/2000/svg" fill="none" viewBox="0 0 24 25"><path fill="#000" fill-rule="evenodd" d="M2 6.852c0-1.959 1.513-3.564 3.486-3.564h3.48c1.129 0 2.209.394 3.019 1.341l1.164 1.12h5.365C20.487 5.75 22 7.356 22 9.315v8.41c0 1.959-1.513 3.564-3.486 3.564H5.486C3.513 21.288 2 19.683 2 17.724zm3.486-1.564C4.676 5.288 4 5.94 4 6.852v10.872c0 .913.675 1.564 1.486 1.564h13.028c.81 0 1.486-.651 1.486-1.564v-8.41c0-.913-.675-1.564-1.486-1.564h-5.768a1 1 0 0 1-.694-.28l-1.491-1.436a1 1 0 0 1-.076-.081c-.379-.456-.874-.665-1.518-.665z" clip-rule="evenodd"/><path fill="#000" fill-rule="evenodd" d="M12 9.788a1 1 0 0 1 1 1v5a1 1 0 0 1-1.625.781l-2.5-2a1 1 0 0 1 1.25-1.562l.875.7v-2.919a1 1 0 0 1 1-1" clip-rule="evenodd"/><path fill="#000" fill-rule="evenodd" d="M15.28 13.163a1 1 0 0 1-.155 1.406l-2.5 2a1 1 0 0 1-1.25-1.562l2.5-2a1 1 0 0 1 1.406.156" clip-rule="evenodd"/></svg>
